svgs/sharp-regular/calendar-week.svg

<svg xmlns="http://www.w3.org/2000/svg" viewBox="0 0 448 512"><!--! Font Awesome Pro 6.6.0 by @fontawesome - https://fontawesome.com License - https://fontawesome.com/license (Commercial License) Copyright 2024 Fonticons, Inc. --><path d="M152 0l0 24 0 40 144 0 0-40 0-24 48 0 0 24 0 40 104 0 0 80 0 48 0 272 0 48-48 0L48 512 0 512l0-48L0 192l0-48L0 64l104 0 0-40 0-24 48 0zM400 192L48 192l0 272 352 0 0-272zm-48 64l0 96L96 352l0-96 256 0z"/></svg>

<svg xmlns="http://www.w3.org/2000/svg" viewBox="0 0 448 512"><!--! Font Awesome Pro 6.4.0 by @fontawesome - https://fontawesome.com License - https://fontawesome.com/license (Commercial License) Copyright 2023 Fonticons, Inc. --><path d="M152 0V24 64H296V24 0h48V24 64H448v80 48V464v48H400 48 0V464 192 144 64H104V24 0h48zM400 192H48V464H400V192zm-48 64v96H96V256H352z"/></svg>
